static/assets/images/logos/monochrome/erdil.svg

<svg width="130" height="40" viewBox="0 0 130 40" fill="none" xmlns="http://www.w3.org/2000/svg">
<path d="M32.5839 4.66504L18.5969 7.70504L14.9109 11.325L35.1699 7.54904L32.5839 4.66504Z" fill="black"/>
<path d="M37.26 9.91992L13.158 13.0419L9.46802 16.6609L41.092 14.1849L37.26 9.91992Z" fill="black"/>
<path d="M43.703 17.208L7.71504 18.378L5.79004 20.453L7.71504 21.566L43.727 23.443L46.577 20.453L43.703 17.208Z" fill="black"/>
<path d="M18.5969 32.2391L32.5839 35.2791L35.1699 32.4611L14.9109 28.6191L18.5969 32.2391Z" fill="black"/>
<path d="M13.158 26.9022L37.26 30.2462L41.092 26.1862L9.46802 23.2822L13.158 26.9022Z" fill="black"/>
<path d="M55.512 30.3729V11.0469H69.305V13.4759H57.96V19.4949H66.828V21.9239H57.96V27.9719H69.305V30.3719L55.512 30.3729ZM83.802 14.2489C83.108 13.7349 82.271 13.4759 81.297 13.4759H75.387V19.4949H81.297C82.293 19.4949 83.128 19.2279 83.802 18.6949C84.59 18.1249 84.985 17.3859 84.985 16.4859C84.985 15.5829 84.59 14.8389 83.802 14.2489V14.2489ZM86.504 30.3729L82.03 23.6079C81.278 22.4859 80.048 21.9249 78.34 21.9249H75.387V30.3729H72.937V11.0469H81.297C82.929 11.0469 84.356 11.5439 85.574 12.5389C86.833 13.6249 87.462 14.9399 87.462 16.4859C87.462 17.7559 87.041 18.8589 86.196 19.7979C85.388 20.7379 84.329 21.3729 83.015 21.7039C83.483 21.7419 84.132 22.3739 84.956 23.6079L89.434 30.3729H86.504ZM103.847 15.6029C102.401 14.1849 100.655 13.4759 98.61 13.4759H93.684V27.9719H98.61C100.618 27.9719 102.363 27.2619 103.847 25.8449C105.292 24.3909 106.013 22.6789 106.013 20.7099C106.013 18.7209 105.292 17.0199 103.847 15.6029ZM105.563 27.5569C103.648 29.4339 101.333 30.3729 98.609 30.3729H91.233V11.0469H98.609C101.332 11.0469 103.648 11.9959 105.563 13.8919C107.497 15.7859 108.46 18.0609 108.46 20.7099C108.46 23.3779 107.497 25.6599 105.563 27.5569ZM111.869 16.1629H114.316V30.3729H111.869V16.1629ZM111.869 11.0469H114.316V13.9659H111.869V11.0469ZM117.978 30.3729V11.0469H120.425V27.9719H129.293V30.3719L117.978 30.3729Z" fill="black"/>
<path d="M0 20.453L20.854 39.915L27.074 34.125L12.14 20.452L27.074 5.805L20.854 0L0 20.453Z" fill="black"/>
<path d="M12.1399 20.4532L27.0739 34.1242V5.80518L12.1399 20.4532Z" fill="white"/>
</svg>

<svg clip-rule="evenodd" fill-rule="evenodd" stroke-linejoin="round" stroke-miterlimit="2" viewBox="0 0 1000 309" xmlns="http://www.w3.org/2000/svg"><g fill-rule="nonzero" transform="scale(7.73437)"><path d="m32.584 4.665-13.987 3.04-3.686 3.62 20.259-3.776z"/><path d="m37.26 9.92-24.102 3.122-3.69 3.619 31.624-2.476z"/><path d="m43.703 17.208-35.988 1.17-1.925 2.075 1.925 1.113 36.012 1.877 2.85-2.99z"/><path d="m18.597 32.239 13.987 3.04 2.586-2.818-20.259-3.842z"/><path d="m13.158 26.902 24.102 3.344 3.832-4.06-31.624-2.904z"/><path d="m55.512 30.373v-19.326h13.793v2.429h-11.345v6.019h8.868v2.429h-8.868v6.048h11.345v2.4zm28.29-16.124c-.694-.514-1.531-.773-2.505-.773h-5.91v6.019h5.91c.996 0 1.831-.267 2.505-.8.788-.57 1.183-1.309 1.183-2.209 0-.903-.395-1.647-1.183-2.237zm2.702 16.124-4.474-6.765c-.752-1.122-1.982-1.683-3.69-1.683h-2.953v8.448h-2.45v-19.326h8.36c1.632 0 3.059.497 4.277 1.492 1.259 1.086 1.888 2.401 1.888 3.947 0 1.27-.421 2.373-1.266 3.312-.808.94-1.867 1.575-3.181 1.906.468.038 1.117.67 1.941 1.904l4.478 6.765zm17.343-14.77c-1.446-1.418-3.192-2.127-5.237-2.127h-4.926v14.496h4.926c2.008 0 3.753-.71 5.237-2.127 1.445-1.454 2.166-3.166 2.166-5.135 0-1.989-.721-3.69-2.166-5.107zm1.716 11.954c-1.915 1.877-4.23 2.816-6.954 2.816h-7.376v-19.326h7.376c2.723 0 5.039.949 6.954 2.845 1.934 1.894 2.897 4.169 2.897 6.818 0 2.668-.963 4.95-2.897 6.847zm6.306-11.394h2.447v14.21h-2.447zm0-5.116h2.447v2.919h-2.447zm6.109 19.326v-19.326h2.447v16.925h8.868v2.4z"/><path d="m0 20.453 20.854 19.462 6.22-5.79-14.934-13.673 14.934-14.647-6.22-5.805z"/><path d="m12.14 20.453 14.934 13.671v-28.319z" fill="#fff"/></g></svg>
